picto/jump-on-train-prohibited-when-door-is-closing-left-framed.svg

<svg class="color-immutable" width="30" height="30" viewBox="0 0 30 30" fill="none" xmlns="http://www.w3.org/2000/svg"><path d="M30 0H0V30H30V0Z" fill="#2D327D"/><path d="M19.3056 13.595C19.4728 13.7606 19.5648 13.9817 19.5648 14.2178C19.5648 14.7019 19.1706 15.0957 18.686 15.0957C18.5453 15.0957 18.4096 15.0628 18.287 15.0005L20.8883 17.6021H23.7634C23.8448 17.6021 23.9238 17.6122 24 17.6296V6H18V12.2897L19.3056 13.595ZM19.8749 7.5C19.8749 7.29293 20.0428 7.125 20.2499 7.125H22.4999C22.707 7.125 22.8749 7.29293 22.8749 7.5V16.125C22.8749 16.3321 22.707 16.5 22.4999 16.5H20.2499C20.0428 16.5 19.8749 16.3321 19.8749 16.125V7.5Z" fill="white"/><path d="M23.3413 24H24.0001V23.3412L23.3413 24Z" fill="white"/><path d="M23.9999 22.939V19.6987C23.9237 19.7162 23.8447 19.7263 23.7633 19.7263H20.7871L23.9999 22.939Z" fill="white"/><path d="M18 19.0604V24H22.9396L18 19.0604Z" fill="white"/><path d="M14.9356 13.8746L17.1856 16.1246L20.3361 19.2751C20.3445 19.2755 20.3528 19.2763 20.3613 19.2763H23.7635C24.1017 19.2763 24.3751 19.0023 24.3751 18.6649C24.3751 18.3256 24.1017 18.052 23.7635 18.052H20.702L15.4669 12.8162H16.6795L18.3824 14.5207C18.4636 14.6011 18.5721 14.6458 18.6861 14.6458C18.9226 14.6458 19.1149 14.4535 19.1149 14.2178C19.1149 14.1031 19.0696 13.9945 18.9891 13.9148L17.1829 12.1092C17.0689 11.9944 16.9123 11.9292 16.7501 11.9292H14.6108C14.165 11.9292 13.7652 12.1207 13.4854 12.4243L14.9356 13.8746Z" fill="white"/><path d="M15.6412 16.7014L14.1463 18.1963C14.0308 18.3126 13.9675 18.4672 13.9675 18.6306V22.3372C13.9675 22.6752 14.2411 22.95 14.5792 22.95C14.9172 22.95 15.1918 22.6752 15.1918 22.3372V18.9699L16.5511 17.6113L15.6412 16.7014Z" fill="white"/><path d="M13.9674 15.0278L13.6012 14.6616L13.079 14.1394V15.6028H12.45V16.5214H13.5079C13.7615 16.5214 13.9674 16.3159 13.9674 16.0618V15.0278Z" fill="white"/><path d="M13.1115 12.0506C13.3071 11.8383 13.4274 11.5556 13.4274 11.2442C13.4274 10.6583 13.0053 10.1727 12.45 10.0712V11.3891L13.1115 12.0506Z" fill="white"/><path d="M8.18604 7.125H9.75008C9.95716 7.125 10.1251 7.29292 10.1251 7.5V9.06405L12.0001 10.9391V6H7.06104L8.18604 7.125Z" fill="white"/><path d="M10.125 11.1854V16.125C10.125 16.3321 9.95708 16.5 9.75 16.5H7.5C7.29293 16.5 7.125 16.3321 7.125 16.125V8.18542L6 7.06042V24H12V13.0604L10.125 11.1854Z" fill="white"/><path d="M6.6576 6H6V6.6576L6.6576 6Z" fill="white"/><path d="M17.1855 16.1246L14.9355 13.8746L6.85923 5.7984L5.79858 6.85905L13.6012 14.6616L15.0641 16.1246L23.1404 24.2008L24.201 23.1401L17.1855 16.1246Z" fill="#EB0000"/><path d="M25.5 3C26.325 3 27 3.675 27 4.5V25.5C27 26.325 26.325 27 25.5 27H4.5C3.675 27 3 26.325 3 25.5V4.5C3 3.675 3.675 3 4.5 3H25.5ZM25.5 2.625H4.5C3.46613 2.625 2.625 3.46613 2.625 4.5V25.5C2.625 26.5339 3.46613 27.375 4.5 27.375H25.5C26.5339 27.375 27.375 26.5339 27.375 25.5V4.5C27.375 3.46613 26.5339 2.625 25.5 2.625Z" fill="white"/></svg>

<svg class="color-immutable" width="30" height="30" viewBox="0 0 30 30" fill="none" xmlns="http://www.w3.org/2000/svg"><g clip-path="url(#a)"><path d="M30 0H0v30h30V0Z" fill="#2D327D"/><path d="M19.306 13.595A.88.88 0 0 1 18.287 15l2.601 2.602h2.875c.082 0 .16.01.237.028V6h-6v6.29l1.306 1.305Zm.569-6.095c0-.207.168-.375.375-.375h2.25c.207 0 .375.168.375.375v8.625a.375.375 0 0 1-.375.375h-2.25a.375.375 0 0 1-.375-.375V7.5ZM23.341 24h.66v-.659l-.66.659ZM24 22.939v-3.24a1.055 1.055 0 0 1-.237.027h-2.976L24 22.94ZM18 19.06V24h4.94L18 19.06Z" fill="#fff"/><path d="m14.936 13.875 2.25 2.25 3.15 3.15.025.001h3.402a.611.611 0 1 0 0-1.224h-3.061l-5.235-5.236h1.213l1.702 1.705a.43.43 0 0 0 .733-.303.425.425 0 0 0-.126-.303l-1.806-1.806a.612.612 0 0 0-.433-.18h-2.14c-.445 0-.845.192-1.125.495l1.45 1.45ZM15.641 16.701l-1.495 1.495a.613.613 0 0 0-.179.435v3.706a.612.612 0 1 0 1.225 0V18.97l1.36-1.359-.91-.91ZM13.967 15.028l-.366-.366-.522-.523v1.464h-.629v.918h1.058a.46.46 0 0 0 .46-.46v-1.033ZM13.111 12.05a1.193 1.193 0 0 0-.662-1.98v1.32l.662.66ZM8.186 7.125H9.75c.207 0 .375.168.375.375v1.564L12 10.94V6H7.061l1.125 1.125ZM10.125 11.185v4.94a.375.375 0 0 1-.375.375H7.5a.375.375 0 0 1-.375-.375v-7.94L6 7.06V24h6V13.06l-1.875-1.875ZM6.658 6H6v.658L6.658 6Z" fill="#fff"/><path d="m17.186 16.125-2.25-2.25-8.077-8.077L5.8 6.86l7.802 7.803 1.463 1.463L23.14 24.2l1.061-1.06-7.015-7.016Z" fill="#EB0000"/><path d="M25.5 3c.825 0 1.5.675 1.5 1.5v21c0 .825-.675 1.5-1.5 1.5h-21c-.825 0-1.5-.675-1.5-1.5v-21C3 3.675 3.675 3 4.5 3h21Zm0-.375h-21A1.877 1.877 0 0 0 2.625 4.5v21c0 1.034.841 1.875 1.875 1.875h21a1.877 1.877 0 0 0 1.875-1.875v-21A1.877 1.877 0 0 0 25.5 2.625Z" fill="#fff"/></g><defs><clipPath id="a"><path fill="#fff" d="M0 0h30v30H0z"/></clipPath></defs></svg>
